;FLAVOR:Marlin
;TIME:12202
;Filament used: 11.2093m
;Layer height: 0.28
;MINX:17.646
;MINY:35.079
;MINZ:0.28
;MAXX:216.799
;MAXY:199.68
;MAXZ:5.04
;Generated with Cura_SteamEngine 4.13.1
M140 S50
M105
M190 S50
M104 S200
M105
M109 S200
M82 ;absolute extrusion mode
; Ender 3 Custom Start G-code
G92 E0 ; Reset Extruder
G28 ; Home all axes
G1 Z2.0 F3000 ; Move Z Axis up little to prevent scratching of Heat Bed
G1 X0.1 Y20 Z0.3 F5000.0 ; Move to start position
G1 X0.1 Y200.0 Z0.3 F1500.0 E15 ; Draw the first line
G1 X0.4 Y200.0 Z0.3 F5000.0 ; Move to side a little
G1 X0.4 Y20 Z0.3 F1500.0 E30 ; Draw the second line
G92 E0 ; Reset Extruder
G1 Z2.0 F3000 ; Move Z Axis up little to prevent scratching of Heat Bed
G1 X5 Y20 Z0.3 F5000.0 ; Move over to prevent blob squish
G92 E0
G92 E0
G1 F2700 E-5
;LAYER_COUNT:18
;LAYER:0
M107
G0 F6000 X57.981 Y77.726 Z0.28
;TYPE:SKIRT
G1 F2700 E0
G1 F1200 X58.626 Y77.241 E0.03758
G1 X59.189 Y76.829 E0.07006
G1 X60.25 Y76.143 E0.12889
G1 X60.451 Y76.029 E0.13965
G1 X62.693 Y74.71 E0.26078
G1 X64.806 Y73.385 E0.37691
G1 X66.902 Y71.985 E0.49428
G1 X68.979 Y70.513 E0.61282
G1 X70.977 Y69.01 E0.72924
G1 X72.963 Y67.426 E0.84753
G1 X74.873 Y65.812 E0.96397
G1 X76.743 Y64.138 E1.08083
G1 X78.578 Y62.401 E1.19849
G1 X80.249 Y60.731 E1.3085
G1 X81.2 Y59.755 E1.37195
G1 X81.43 Y59.525 E1.38709
G1 X81.827 Y59.141 E1.41281
G1 X82.529 Y58.519 E1.45649
G1 X83.198 Y58.015 E1.49549
G1 X83.554 Y57.774 E1.51551
G1 X83.923 Y57.535 E1.53598
G1 X84.181 Y57.374 E1.55014
G1 X84.685 Y57.067 E1.57762
G1 X85.506 Y56.613 E1.6213
G1 X86.322 Y56.248 E1.66293
G1 X86.669 Y56.114 E1.68025
G1 X87.129 Y55.945 E1.70307
G1 X87.443 Y55.834 E1.71858
G1 X87.956 Y55.663 E1.74376
G1 X88.247 Y55.571 E1.75797
G1 X88.788 Y55.407 E1.78429
G1 X91.282 Y54.613 E1.90616
G1 X93.658 Y53.782 E2.02337
G1 X96.008 Y52.885 E2.1405
G1 X98.349 Y51.915 E2.25849
G1 X100.61 Y50.901 E2.37388
G1 X102.928 Y49.784 E2.49369
G1 X105.108 Y48.655 E2.60801
G1 X107.343 Y47.416 E2.727
G1 X109.522 Y46.126 E2.84491
G1 X111.599 Y44.815 E2.95928
G1 X113.736 Y43.382 E3.07909
G1 X115.782 Y41.923 E3.1961
G1 X117.786 Y40.408 E3.31308
G1 X119.531 Y39.013 E3.41711
G1 X119.937 Y38.68 E3.44156
G1 X120.929 Y37.954 E3.4988
G1 X121.391 Y37.654 E3.52445
G1 X121.657 Y37.487 E3.53907
G1 X122.141 Y37.192 E3.56547
G1 X122.962 Y36.739 E3.60913
G1 X124.09 Y36.253 E3.66632
G1 X124.64 Y36.052 E3.69359
G1 X124.95 Y35.944 E3.70887
G1 X125.453 Y35.777 E3.73355
G1 X126.355 Y35.52 E3.77722
G1 X127.016 Y35.383 E3.80866
G1 X127.09 Y35.37 E3.81216
G1 X127.632 Y35.289 E3.83767
G1 X128.097 Y35.231 E3.85949
G1 X128.367 Y35.2 E3.87215
G1 X128.949 Y35.142 E3.89938
G1 X129.892 Y35.089 E3.94336
G1 X130.71 Y35.079 E3.98146
G1 X174.593 Y35.081 E6.02483
G1 X175.357 Y35.092 E6.06041
G1 X175.888 Y35.113 E6.08516
G1 X176.111 Y35.127 E6.09556
G1 X176.667 Y35.176 E6.12155
G1 X177.333 Y35.252 E6.15276
G1 X177.732 Y35.303 E6.17149
G1 X178.443 Y35.403 E6.20493
G1 X179.735 Y35.665 E6.26631
G1 X180.104 Y35.763 E6.28409
G1 X180.342 Y35.829 E6.29559
G1 X180.929 Y36 E6.32406
G1 X181.649 Y36.221 E6.35913
G1 X182.825 Y36.657 E6.41753
G1 X183.118 Y36.785 E6.43242
G1 X183.399 Y36.912 E6.44678
G1 X184.044 Y37.217 E6.48
G1 X184.629 Y37.502 E6.5103
G1 X185.697 Y38.098 E6.56725
G1 X185.997 Y38.288 E6.58379
G1 X186.295 Y38.484 E6.6004
G1 X186.831 Y38.85 E6.63062
G1 X187.443 Y39.279 E6.66542
G1 X188.413 Y40.043 E6.72291
G1 X188.671 Y40.271 E6.73895
G1 X188.936 Y40.513 E6.75566
G1 X189.438 Y40.988 E6.78784
G1 X189.945 Y41.48 E6.82073
G1 X190.759 Y42.362 E6.87662
G1 X190.922 Y42.559 E6.88853
G1 X191.135 Y42.824 E6.90436
G1 X191.479 Y43.267 E6.93048
G1 X192.037 Y44.009 E6.97371
G1 X192.722 Y45.037 E7.03123
G1 X192.856 Y45.265 E7.04354
G1 X193.002 Y45.52 E7.05722
G1 X193.335 Y46.126 E7.08942
G1 X193.702 Y46.815 E7.12577
G1 X194.268 Y48.058 E7.18937
G1 X194.419 Y48.453 E7.20906
G1 X194.635 Y49.05 E7.23862
G1 X195.07 Y50.318 E7.30104
G1 X195.66 Y52.125 E7.38956
G1 X196.513 Y54.509 E7.50746
G1 X197.426 Y56.85 E7.62446
G1 X198.407 Y59.168 E7.74167
G1 X199.466 Y61.489 E7.86046
G1 X200.557 Y63.71 E7.97568
G1 X201.737 Y65.951 E8.09361
G1 X202.968 Y68.135 E8.21035
G1 X204.269 Y70.299 E8.32793
G1 X205.634 Y72.429 E8.44573
G1 X207.035 Y74.484 E8.56154
G1 X208.516 Y76.533 E8.67926
G1 X210.063 Y78.548 E8.79755
G1 X211.606 Y80.447 E8.91149
G1 X211.894 Y80.795 E8.93252
G1 X212.063 Y81.004 E8.94503
G1 X212.395 Y81.428 E8.97011
G1 X212.866 Y82.043 E9.00618
G1 X213.583 Y83.102 E9.06573
G1 X213.748 Y83.379 E9.08074
G1 X213.883 Y83.611 E9.09324
G1 X214.241 Y84.25 E9.12735
G1 X214.543 Y84.806 E9.15681
G1 X214.929 Y85.588 E9.19742
G1 X215.104 Y85.999 E9.21822
G1 X215.214 Y86.272 E9.23192
G1 X215.319 Y86.542 E9.24541
G1 X215.556 Y87.183 E9.27724
G1 X215.8 Y87.873 E9.31132
G1 X216.14 Y89.033 E9.3676
G1 X216.217 Y89.362 E9.38334
G1 X216.286 Y89.682 E9.39858
G1 X216.417 Y90.332 E9.42945
G1 X216.529 Y90.93 E9.45778
G1 X216.694 Y92.242 E9.51936
G1 X216.764 Y93.32 E9.56966
G1 X216.782 Y93.711 E9.58789
G1 X216.799 Y94.291 E9.6149
G1 X216.764 Y95.548 E9.67346
G1 X216.732 Y95.923 E9.69098
G1 X216.704 Y96.213 E9.70455
G1 X216.631 Y96.848 E9.73431
G1 X216.539 Y97.572 E9.7683
G1 X216.477 Y98.001 E9.78848
G1 X216.369 Y98.614 E9.81746
G1 X215.637 Y102.414 E9.99766
G1 X215.433 Y103.405 E10.04477
G1 X215.353 Y103.763 E10.06185
G1 X215.143 Y104.629 E10.10335
G1 X214.973 Y105.293 E10.13526
G1 X214.798 Y105.906 E10.16495
G1 X214.536 Y106.728 E10.20512
G1 X214.434 Y107.031 E10.22001
G1 X214.183 Y107.746 E10.25529
G1 X213.94 Y108.374 E10.28665
G1 X213.787 Y108.737 E10.30499
G1 X213.657 Y109.034 E10.32009
G1 X213.515 Y109.345 E10.33601
G1 X213.393 Y109.603 E10.3493
G1 X212.751 Y110.917 E10.41739
G1 X212.461 Y111.5 E10.44771
G1 X211.381 Y113.828 E10.56721
G1 X210.392 Y116.123 E10.68358
G1 X209.45 Y118.489 E10.80216
G1 X208.59 Y120.851 E10.91921
G1 X207.808 Y123.199 E11.03444
G1 X207.071 Y125.638 E11.15309
G1 X206.409 Y128.07 E11.27045
G1 X205.82 Y130.511 E11.38738
G1 X205.295 Y132.991 E11.50541
G1 X204.848 Y135.444 E11.62152
G1 X204.47 Y137.914 E11.73787
G1 X204.157 Y140.428 E11.85584
G1 X203.916 Y142.951 E11.97385
G1 X203.748 Y145.446 E12.09029
G1 X203.686 Y146.951 E12.16043
G1 X203.657 Y147.469 E12.18459
G1 X203.562 Y148.402 E12.22826
G1 X203.388 Y149.324 E12.27195
G1 X203.137 Y150.227 E12.31559
G1 X202.809 Y151.106 E12.35928
G1 X202.407 Y151.953 E12.40293
G1 X201.935 Y152.764 E12.44663
G1 X201.134 Y153.858 E12.50976
G1 X199.432 Y155.905 E12.63372
G1 X197.864 Y157.901 E12.75191
G1 X196.353 Y159.94 E12.87009
G1 X194.937 Y161.97 E12.98534
G1 X193.562 Y164.065 E13.10202
G1 X192.223 Y166.236 E13.22079
G1 X190.959 Y168.421 E13.33833
G1 X189.776 Y170.606 E13.45403
G1 X188.636 Y172.865 E13.57186
G1 X187.544 Y175.189 E13.69142
G1 X186.864 Y176.725 E13.76964
G1 X186.507 Y177.552 E13.81158
G1 X186.026 Y178.53 E13.86233
G1 X185.786 Y178.945 E13.88466
G1 X185.532 Y179.363 E13.90743
G1 X185.364 Y179.63 E13.92212
G1 X185.048 Y180.118 E13.94919
G1 X184.505 Y180.883 E13.99288
G1 X183.697 Y181.812 E14.05021
G1 X183.33 Y182.189 E14.0747
G1 X183.113 Y182.406 E14.08899
G1 X182.693 Y182.814 E14.11626
G1 X181.993 Y183.438 E14.15993
G1 X181.023 Y184.147 E14.21587
G1 X180.563 Y184.446 E14.24142
G1 X180.29 Y184.618 E14.25644
G1 X179.804 Y184.914 E14.28294
G1 X178.983 Y185.367 E14.3266
G1 X177.895 Y185.837 E14.38179
G1 X177.389 Y186.024 E14.40691
G1 X177.049 Y186.143 E14.42368
G1 X176.514 Y186.321 E14.44994
G1 X175.937 Y186.496 E14.47801
G1 X174.646 Y186.848 E14.54032
G1 X172.158 Y187.565 E14.66089
G1 X169.762 Y188.328 E14.77798
G1 X167.379 Y189.163 E14.89555
G1 X165.055 Y190.052 E15.01142
G1 X162.713 Y191.023 E15.12947
G1 X160.43 Y192.047 E15.24598
G1 X158.141 Y193.153 E15.36436
G1 X155.94 Y194.294 E15.4798
G1 X153.722 Y195.524 E15.59789
G1 X151.438 Y196.895 E15.72194
G1 X151.224 Y197.011 E15.73327
G1 X150.327 Y197.559 E15.78222
G1 X149.506 Y198.014 E15.82592
G1 X148.405 Y198.49 E15.88178
G1 X147.885 Y198.682 E15.90759
G1 X147.548 Y198.8 E15.92421
G1 X147.001 Y198.982 E15.95106
G1 X146.099 Y199.24 E15.99474
G1 X144.916 Y199.457 E16.05075
G1 X144.358 Y199.528 E16.07694
G1 X144.049 Y199.563 E16.09142
G1 X143.491 Y199.618 E16.11753
G1 X142.558 Y199.67 E16.16104
G1 X141.736 Y199.68 E16.19932
G1 X97.861 Y199.678 E18.24232
G1 X97.098 Y199.667 E18.27786
G1 X96.509 Y199.643 E18.3053
G1 X96.245 Y199.625 E18.31763
G1 X95.773 Y199.582 E18.3397
G1 X95.172 Y199.514 E18.36786
G1 X94.757 Y199.461 E18.38734
G1 X94.16 Y199.378 E18.41541
G1 X92.879 Y199.122 E18.47623
G1 X91.863 Y198.855 E18.52515
G1 X91.5 Y198.753 E18.54271
G1 X91.043 Y198.616 E18.56492
G1 X89.802 Y198.161 E18.62647
G1 X88.835 Y197.739 E18.6756
G1 X88.488 Y197.58 E18.69337
G1 X88.049 Y197.37 E18.71603
G1 X86.909 Y196.739 E18.7767
G1 X86.014 Y196.172 E18.82604
G1 X83.52 Y194.518 E18.96539
G1 X81.375 Y193.183 E19.08303
G1 X79.189 Y191.907 E19.20089
G1 X76.985 Y190.701 E19.31788
G1 X74.754 Y189.562 E19.43452
G1 X72.465 Y188.473 E19.55255
G1 X70.149 Y187.453 E19.67039
G1 X67.845 Y186.513 E19.78626
G1 X65.5 Y185.632 E19.90291
G1 X63.081 Y184.802 E20.02199
G1 X60.703 Y184.06 E20.13799
G1 X58.276 Y183.378 E20.25537
G1 X55.792 Y182.754 E20.37463
G1 X53.399 Y182.227 E20.48873
G1 X50.891 Y181.746 E20.60764
G1 X48.415 Y181.345 E20.72444
G1 X45.906 Y181.009 E20.84231
G1 X43.425 Y180.75 E20.95846
G1 X40.9 Y180.557 E21.07638
G1 X39.246 Y180.478 E21.15349
G1 X39.053 Y180.461 E21.16251
G1 X37.796 Y180.405 E21.2211
G1 X37.106 Y180.353 E21.25332
G1 X36.055 Y180.24 E21.30254
G1 X35.706 Y180.197 E21.31891
G1 X35.056 Y180.106 E21.34947
G1 X33.807 Y179.856 E21.40879
G1 X33.477 Y179.77 E21.42467
G1 X33.162 Y179.684 E21.43987
G1 X32.505 Y179.49 E21.47177
G1 X31.836 Y179.285 E21.50435
G1 X30.581 Y178.815 E21.56675
G1 X30.24 Y178.663 E21.58414
G1 X30.012 Y178.558 E21.59582
G1 X29.404 Y178.269 E21.62717
G1 X28.757 Y177.95 E21.66076
G1 X27.657 Y177.327 E21.71963
G1 X27.361 Y177.136 E21.73603
G1 X27.091 Y176.956 E21.75114
G1 X26.53 Y176.569 E21.78287
G1 X25.983 Y176.182 E21.81408
G1 X24.963 Y175.366 E21.8749
G1 X24.643 Y175.077 E21.89498
G1 X24.435 Y174.884 E21.90819
G1 X23.945 Y174.416 E21.93974
G1 X23.473 Y173.953 E21.97053
G1 X22.631 Y173.027 E22.02881
G1 X22.464 Y172.821 E22.04116
G1 X22.28 Y172.588 E22.05498
G1 X21.905 Y172.099 E22.08367
G1 X21.358 Y171.36 E22.12649
G1 X20.677 Y170.319 E22.18441
G1 X20.567 Y170.128 E22.19467
G1 X20.424 Y169.873 E22.20829
G1 X20.121 Y169.313 E22.23794
G1 X19.7 Y168.503 E22.28044
G1 X19.195 Y167.379 E22.33782
G1 X19.095 Y167.118 E22.35084
G1 X18.988 Y166.824 E22.3654
G1 X18.728 Y166.078 E22.40219
G1 X18.502 Y165.393 E22.43578
G1 X18.197 Y164.276 E22.48969
G1 X18.137 Y163.999 E22.50289
G1 X18.057 Y163.592 E22.52221
G1 X17.945 Y162.961 E22.55205
G1 X17.811 Y162.132 E22.59115
G1 X17.684 Y160.927 E22.64757
G1 X17.671 Y160.663 E22.65988
G1 X17.66 Y160.334 E22.67521
G1 X17.648 Y159.712 E22.70417
G1 X17.646 Y159.5 E22.71405
G1 X17.646 Y158.802 E22.74655
G1 X17.711 Y157.611 E22.80209
G1 X17.744 Y157.308 E22.81628
G1 X17.79 Y156.943 E22.83341
G1 X17.901 Y156.176 E22.8695
G1 X18.009 Y155.497 E22.90151
G1 X18.28 Y154.257 E22.96062
G1 X18.375 Y153.918 E22.97701
G1 X18.464 Y153.615 E22.99171
G1 X18.625 Y153.098 E23.01693
G1 X18.881 Y152.312 E23.05542
G1 X19.351 Y151.111 E23.11547
G1 X19.452 Y150.892 E23.1267
G1 X19.566 Y150.653 E23.13903
G1 X19.954 Y149.866 E23.17989
G1 X20.265 Y149.262 E23.21152
G1 X20.453 Y148.912 E23.23002
G1 X20.6 Y148.652 E23.24393
G1 X20.887 Y148.161 E23.27041
G1 X22.812 Y144.943 E23.44502
G1 X23.407 Y143.985 E23.49753
G1 X23.6 Y143.688 E23.51403
G1 X24.03 Y143.042 E23.55016
G1 X24.391 Y142.515 E23.57991
G1 X24.772 Y141.992 E23.61004
G1 X25.327 Y141.276 E23.65222
G1 X25.539 Y141.011 E23.66802
G1 X25.989 Y140.466 E23.70093
G1 X26.39 Y140.007 E23.72931
G1 X27.314 Y139.006 E23.79275
G1 X27.435 Y138.863 E23.80147
G1 X28.528 Y137.677 E23.87657
G1 X30.164 Y135.796 E23.99265
G1 X31.792 Y133.814 E24.11208
G1 X33.299 Y131.87 E24.22662
G1 X34.8 Y129.814 E24.34515
G1 X36.224 Y127.747 E24.46203
G1 X37.596 Y125.627 E24.57961
G1 X38.892 Y123.495 E24.69579
G1 X40.15 Y121.289 E24.81404
G1 X41.324 Y119.085 E24.93032
G1 X42.452 Y116.816 E25.04831
G1 X43.51 Y114.526 E25.16577
G1 X44.504 Y112.21 E25.28313
G1 X45.441 Y109.842 E25.40171
G1 X46.273 Y107.546 E25.51542
G1 X47.083 Y105.099 E25.63545
G1 X47.799 Y102.716 E25.75131
G1 X48.45 Y100.303 E25.86769
G1 X49.04 Y97.835 E25.98584
G1 X49.565 Y95.34 E26.10457
G1 X50.006 Y92.891 E26.22044
G1 X50.335 Y90.755 E26.32107
G1 X50.366 Y90.538 E26.33128
G1 X50.611 Y89.319 E26.38917
G1 X50.678 Y89.062 E26.40154
G1 X50.766 Y88.745 E26.41686
G1 X51.001 Y87.946 E26.45564
G1 X51.199 Y87.307 E26.48679
G1 X51.641 Y86.126 E26.54551
G1 X51.749 Y85.881 E26.55798
G1 X51.879 Y85.597 E26.57252
G1 X52.228 Y84.866 E26.61024
G1 X52.553 Y84.214 E26.64416
G1 X53.144 Y83.175 E26.69982
G1 X53.277 Y82.968 E26.71128
G1 X53.478 Y82.666 E26.72817
G1 X53.942 Y81.996 E26.76612
G1 X54.354 Y81.419 E26.79913
G1 X55.134 Y80.447 E26.85716
G1 X55.298 Y80.265 E26.86857
G1 X55.527 Y80.019 E26.88422
G1 X56.008 Y79.517 E26.91659
G1 X56.595 Y78.923 E26.95548
G1 X57.52 Y78.09 E27.01344
G1 X57.718 Y77.931 E27.02527
G1 X57.981 Y77.726 E27.0408
G0 F6000 X58.221 Y78.046
G1 F1200 X58.862 Y77.564 E27.07814
G1 X59.425 Y77.152 E27.11063
G1 X60.447 Y76.49 E27.16733
G1 X60.675 Y76.36 E27.17955
G1 X62.887 Y75.059 E27.29904
G1 X65.059 Y73.697 E27.41842
G1 X67.134 Y72.312 E27.53459
G1 X69.223 Y70.831 E27.65382
G1 X71.204 Y69.341 E27.76925
G1 X73.204 Y67.745 E27.88839
G1 X75.128 Y66.12 E28.00566
G1 X77.019 Y64.427 E28.12385
G1 X78.872 Y62.673 E28.24265
G1 X80.498 Y61.048 E28.3497
G1 X81.486 Y60.034 E28.41562
G1 X81.708 Y59.813 E28.43021
G1 X82.105 Y59.429 E28.45592
G1 X82.794 Y58.818 E28.49881
G1 X83.426 Y58.343 E28.53562
G1 X83.772 Y58.11 E28.55504
G1 X84.141 Y57.871 E28.57551
G1 X84.389 Y57.715 E28.58916
G1 X84.893 Y57.408 E28.61664
G1 X85.699 Y56.964 E28.65948
G1 X86.47 Y56.619 E28.69882
G1 X86.807 Y56.489 E28.71564
G1 X87.267 Y56.32 E28.73845
G1 X87.57 Y56.214 E28.7534
G1 X88.083 Y56.043 E28.77858
G1 X88.363 Y55.954 E28.79226
G1 X88.943 Y55.778 E28.82049
G1 X91.398 Y54.997 E28.94045
G1 X93.796 Y54.157 E29.05876
G1 X96.168 Y53.253 E29.17696
G1 X98.487 Y52.291 E29.29386
G1 X100.798 Y51.256 E29.41177
G1 X103.079 Y50.156 E29.52969
G1 X105.307 Y49.002 E29.64653
G1 X107.535 Y47.767 E29.76514
G1 X109.706 Y46.482 E29.88262
G1 X111.855 Y45.126 E30.00094
G1 X113.945 Y43.724 E30.11812
G1 X116.01 Y42.253 E30.23618
G1 X118.013 Y40.738 E30.35312
G1 X119.83 Y39.285 E30.46146
G1 X120.191 Y38.989 E30.48319
G1 X121.147 Y38.29 E30.53834
G1 X121.609 Y37.99 E30.56399
G1 X121.865 Y37.829 E30.57807
G1 X122.349 Y37.534 E30.60447
G1 X123.155 Y37.089 E30.64734
G1 X124.228 Y36.629 E30.7017
G1 X124.778 Y36.428 E30.72896
G1 X125.076 Y36.324 E30.74366
G1 X125.579 Y36.157 E30.76834
G1 X126.465 Y35.905 E30.81123
G1 X127.085 Y35.777 E30.84071
G1 X127.159 Y35.764 E30.84421
G1 X127.681 Y35.686 E30.86879
G1 X128.146 Y35.628 E30.89061
G1 X128.407 Y35.598 E30.90284
G1 X128.989 Y35.54 E30.93007
G1 X129.898 Y35.489 E30.97247
G1 X130.71 Y35.479 E31.01028
G1 X174.588 Y35.481 E33.05342
G1 X175.352 Y35.492 E33.089
G1 X175.863 Y35.512 E33.11282
G1 X176.086 Y35.526 E33.12322
G1 X176.622 Y35.573 E33.14827
G1 X177.284 Y35.649 E33.1793
G1 X177.676 Y35.699 E33.1977
G1 X178.387 Y35.799 E33.23114
G1 X179.632 Y36.051 E33.29028
G1 X180.001 Y36.149 E33.30806
G1 X180.23 Y36.213 E33.31913
G1 X180.811 Y36.383 E33.34732
G1 X181.531 Y36.604 E33.38239
G1 X182.664 Y37.023 E33.43864
G1 X182.957 Y37.151 E33.45353
G1 X183.228 Y37.274 E33.46739
G1 X183.868 Y37.577 E33.50036
G1 X184.453 Y37.862 E33.53066
G1 X185.483 Y38.436 E33.58557
G1 X185.783 Y38.626 E33.6021
G1 X186.07 Y38.815 E33.6181
G1 X186.601 Y39.177 E33.64803
G1 X187.213 Y39.606 E33.68283
G1 X188.148 Y40.343 E33.73826
G1 X188.406 Y40.571 E33.7543
G1 X188.662 Y40.804 E33.77042
G1 X189.159 Y41.275 E33.8023
G1 X189.666 Y41.767 E33.8352
G1 X190.451 Y42.617 E33.88907
G1 X190.614 Y42.814 E33.90098
G1 X190.819 Y43.07 E33.91625
G1 X191.269 Y43.652 E33.95051
G1 X191.717 Y44.249 E33.98526
G1 X192.378 Y45.24 E34.04073
G1 X192.512 Y45.468 E34.05304
