;FLAVOR:Marlin
;TIME:13051
;Filament used: 8.19432m
;Layer height: 0.28
;MINX:77.181
;MINY:73.781
;MINZ:0.28
;MAXX:157.495
;MAXY:161.219
;MAXZ:20.72
;Generated with Cura_SteamEngine 4.13.1
M140 S50
M105
M190 S50
M104 S200
M105
M109 S200
M82 ;absolute extrusion mode
; Ender 3 Custom Start G-code
G92 E0 ; Reset Extruder
G28 ; Home all axes
G1 Z2.0 F3000 ; Move Z Axis up little to prevent scratching of Heat Bed
G1 X0.1 Y20 Z0.3 F5000.0 ; Move to start position
G1 X0.1 Y200.0 Z0.3 F1500.0 E15 ; Draw the first line
G1 X0.4 Y200.0 Z0.3 F5000.0 ; Move to side a little
G1 X0.4 Y20 Z0.3 F1500.0 E30 ; Draw the second line
G92 E0 ; Reset Extruder
G1 Z2.0 F3000 ; Move Z Axis up little to prevent scratching of Heat Bed
G1 X5 Y20 Z0.3 F5000.0 ; Move over to prevent blob squish
G92 E0
G92 E0
G1 F2700 E-5
;LAYER_COUNT:74
;LAYER:0
M107
G0 F6000 X81.082 Y91.119 Z0.28
;TYPE:SKIRT
G1 F2700 E0
G1 F1200 X81.823 Y90.544 E0.04367
G1 X82.61 Y90.034 E0.08734
G1 X83.438 Y89.593 E0.13102
G1 X84.3 Y89.224 E0.17469
G1 X84.798 Y89.05 E0.19925
G1 X85.219 Y88.914 E0.21985
G1 X87.329 Y88.265 E0.32264
G1 X89.689 Y87.467 E0.43865
G1 X92.048 Y86.593 E0.55579
G1 X94.36 Y85.662 E0.67185
G1 X96.726 Y84.629 E0.79206
G1 X99.009 Y83.557 E0.9095
G1 X100.1 Y83.028 E0.96596
G1 X102.4 Y81.872 E1.08582
G1 X104.586 Y80.696 E1.20141
G1 X106.75 Y79.45 E1.31768
G1 X106.996 Y79.301 E1.33107
G1 X108.228 Y78.568 E1.39783
G1 X108.945 Y78.176 E1.43588
G1 X109.801 Y77.793 E1.47954
G1 X110.686 Y77.484 E1.52319
G1 X111.595 Y77.252 E1.56688
G1 X112.52 Y77.097 E1.61055
G1 X113.538 Y77.02 E1.65809
G1 X114.23 Y76.999 E1.69032
G1 X116.876 Y76.884 E1.81365
G1 X119.375 Y76.705 E1.93031
G1 X121.888 Y76.453 E2.04791
G1 X124.395 Y76.13 E2.16562
G1 X126.867 Y75.74 E2.28215
G1 X129.328 Y75.279 E2.39873
G1 X131.804 Y74.744 E2.51669
G1 X134.327 Y74.122 E2.63769
G1 X134.75 Y74.026 E2.65788
G1 X135.675 Y73.872 E2.70155
G1 X136.703 Y73.794 E2.74955
G1 X137.019 Y73.785 E2.76427
G1 X137.336 Y73.781 E2.77904
G1 X140.482 Y73.783 E2.92553
G1 X141.15 Y73.793 E2.95664
G1 X142.086 Y73.847 E3.00029
G1 X143.014 Y73.981 E3.04395
G1 X143.928 Y74.193 E3.08764
G1 X144.82 Y74.482 E3.1313
G1 X145.684 Y74.846 E3.17496
G1 X146.514 Y75.283 E3.21864
G1 X147.304 Y75.788 E3.2623
G1 X148.048 Y76.359 E3.30597
G1 X148.741 Y76.992 E3.34967
G1 X149.377 Y77.681 E3.39333
G1 X149.953 Y78.421 E3.437
G1 X150.463 Y79.209 E3.48071
G1 X150.904 Y80.036 E3.52435
G1 X151.273 Y80.898 E3.56801
G1 X151.567 Y81.789 E3.6117
G1 X151.784 Y82.701 E3.65535
G1 X151.871 Y83.215 E3.67962
G1 X152.018 Y84.23 E3.72738
G1 X152.057 Y84.523 E3.74114
G1 X152.449 Y87.047 E3.86008
G1 X152.903 Y89.514 E3.97688
G1 X153.424 Y91.955 E4.09311
G1 X154.019 Y94.4 E4.21028
G1 X154.686 Y96.841 E4.32811
G1 X155.426 Y99.274 E4.44652
G1 X156.215 Y101.625 E4.562
G1 X156.398 Y102.12 E4.58657
G1 X156.859 Y103.427 E4.6511
G1 X157.133 Y104.324 E4.69478
G1 X157.329 Y105.241 E4.73844
G1 X157.447 Y106.172 E4.78214
G1 X157.48 Y106.759 E4.80952
G1 X157.49 Y107.095 E4.82517
G1 X157.495 Y107.422 E4.8404
G1 X157.494 Y127.383 E5.76986
G1 X157.483 Y128.09 E5.80279
G1 X157.428 Y129.026 E5.84645
G1 X157.294 Y129.955 E5.89015
G1 X157.081 Y130.868 E5.93381
G1 X156.818 Y131.688 E5.97391
G1 X156.707 Y131.993 E5.98902
G1 X155.843 Y134.441 E6.1099
G1 X155.067 Y136.857 E6.22806
G1 X154.375 Y139.244 E6.34379
G1 X153.736 Y141.704 E6.46214
G1 X153.166 Y144.175 E6.58022
G1 X152.681 Y146.608 E6.69574
G1 X152.251 Y149.122 E6.8145
G1 X151.875 Y151.761 E6.93862
G1 X151.703 Y152.683 E6.9823
G1 X151.454 Y153.587 E7.02596
G1 X151.128 Y154.467 E7.06966
G1 X150.728 Y155.315 E7.11331
G1 X150.258 Y156.127 E7.157
G1 X149.72 Y156.895 E7.20066
G1 X149.119 Y157.615 E7.24434
G1 X148.459 Y158.281 E7.288
G1 X147.744 Y158.888 E7.33167
G1 X146.98 Y159.433 E7.37537
G1 X146.173 Y159.91 E7.41902
G1 X145.328 Y160.316 E7.46267
G1 X144.451 Y160.65 E7.50637
G1 X143.549 Y160.907 E7.55004
G1 X142.629 Y161.086 E7.59368
G1 X141.297 Y161.206 E7.65596
G1 X140.98 Y161.215 E7.67073
G1 X140.668 Y161.219 E7.68525
G1 X136.96 Y161.219 E7.85791
G1 X135.812 Y161.214 E7.91137
G1 X135.119 Y161.219 E7.94364
G1 X132.021 Y161.217 E8.0879
G1 X131.342 Y161.207 E8.11952
G1 X130.406 Y161.153 E8.16317
G1 X129.477 Y161.02 E8.20687
G1 X128.881 Y160.891 E8.23527
G1 X127.574 Y160.57 E8.29794
G1 X125.079 Y159.995 E8.41716
G1 X122.584 Y159.492 E8.53567
G1 X120.126 Y159.073 E8.65178
G1 X117.62 Y158.716 E8.76965
G1 X115.13 Y158.433 E8.88634
G1 X112.624 Y158.219 E9.00345
G1 X110.107 Y158.077 E9.12084
G1 X107.591 Y158.004 E9.23805
G1 X106.246 Y157.995 E9.30068
G1 X104.388 Y157.995 E9.38719
G1 X103.529 Y157.984 E9.4272
G1 X102.593 Y157.931 E9.47085
G1 X101.665 Y157.798 E9.5145
G1 X100.751 Y157.586 E9.55819
G1 X99.858 Y157.298 E9.60188
G1 X98.994 Y156.934 E9.64554
G1 X98.163 Y156.498 E9.68924
G1 X97.373 Y155.993 E9.7329
G1 X96.427 Y155.25 E9.78891
G1 X95.449 Y154.391 E9.84952
G1 X93.449 Y152.683 E9.97199
G1 X91.484 Y151.097 E10.08957
G1 X89.5 Y149.588 E10.20564
G1 X87.437 Y148.108 E10.32386
G1 X85.37 Y146.712 E10.44001
G1 X83.146 Y145.3 E10.56267
G1 X82.415 Y144.849 E10.60267
G1 X81.638 Y144.323 E10.64636
G1 X80.909 Y143.733 E10.69003
G1 X80.234 Y143.083 E10.73366
G1 X79.616 Y142.377 E10.77735
G1 X79.06 Y141.622 E10.82101
G1 X78.571 Y140.822 E10.86467
G1 X78.151 Y139.983 E10.90836
G1 X77.805 Y139.111 E10.95205
G1 X77.534 Y138.213 E10.99572
G1 X77.341 Y137.296 E11.03936
G1 X77.226 Y136.365 E11.08304
G1 X77.196 Y135.833 E11.10785
G1 X77.186 Y135.514 E11.12271
G1 X77.181 Y135.165 E11.13896
G1 X77.183 Y132.021 E11.28536
G1 X77.193 Y131.344 E11.31689
G1 X77.282 Y130.105 E11.37473
G1 X77.434 Y128.92 E11.43036
G1 X77.732 Y126.308 E11.55278
G1 X77.947 Y123.798 E11.67008
G1 X78.091 Y121.279 E11.78757
G1 X78.162 Y118.79 E11.90351
G1 X78.164 Y116.266 E12.02104
G1 X78.093 Y113.746 E12.13843
G1 X77.951 Y111.21 E12.2567
G1 X77.74 Y108.71 E12.37353
G1 X77.452 Y106.172 E12.49246
G1 X77.289 Y104.957 E12.54955
G1 X77.196 Y103.831 E12.60216
G1 X77.186 Y103.506 E12.6173
G1 X77.181 Y103.164 E12.63322
G1 X77.183 Y100.005 E12.78032
G1 X77.193 Y99.346 E12.81101
G1 X77.247 Y98.41 E12.85467
G1 X77.381 Y97.482 E12.89833
G1 X77.594 Y96.568 E12.94203
G1 X77.883 Y95.676 E12.98569
G1 X78.247 Y94.812 E13.02934
G1 X78.684 Y93.982 E13.07302
G1 X79.19 Y93.192 E13.1167
G1 X79.761 Y92.448 E13.16038
G1 X80.393 Y91.755 E13.20405
G1 X81.082 Y91.119 E13.24771
G0 F6000 X81.471 Y91.316
G1 F1200 X82.207 Y90.764 E13.29055
G1 X82.989 Y90.278 E13.33342
G1 X83.81 Y89.861 E13.3763
G1 X84.922 Y89.43 E13.43183
G1 X85.337 Y89.297 E13.45212
G1 X87.427 Y88.655 E13.55393
G1 X89.82 Y87.845 E13.67157
G1 X92.188 Y86.968 E13.78915
G1 X94.532 Y86.023 E13.90684
G1 X96.877 Y85 E14.02597
G1 X99.146 Y83.935 E14.14268
G1 X100.2 Y83.423 E14.19724
G1 X100.301 Y83.376 E14.20243
G1 X102.563 Y82.239 E14.32032
G1 X104.769 Y81.052 E14.43696
G1 X106.978 Y79.78 E14.55566
G1 X107.2 Y79.644 E14.56778
G1 X108.432 Y78.911 E14.63453
G1 X109.124 Y78.534 E14.67123
G1 X109.964 Y78.158 E14.71408
G1 X110.834 Y77.857 E14.75695
G1 X111.727 Y77.633 E14.79982
G1 X112.636 Y77.486 E14.84269
G1 X113.55 Y77.42 E14.88536
G1 X114.258 Y77.399 E14.91835
G1 X116.888 Y77.285 E15.04093
G1 X119.408 Y77.104 E15.15857
G1 X121.942 Y76.849 E15.27716
G1 X124.437 Y76.528 E15.39429
G1 X126.931 Y76.135 E15.51186
G1 X129.422 Y75.669 E15.62986
G1 X131.872 Y75.139 E15.74658
G1 X134.422 Y74.51 E15.86888
G1 X134.832 Y74.417 E15.88846
G1 X135.741 Y74.267 E15.93136
G1 X136.714 Y74.194 E15.97679
G1 X137.03 Y74.185 E15.99151
G1 X137.336 Y74.181 E16.00576
G1 X140.476 Y74.183 E16.15197
G1 X141.144 Y74.193 E16.18308
G1 X142.063 Y74.247 E16.22595
G1 X142.974 Y74.38 E16.26882
G1 X143.87 Y74.592 E16.31169
G1 X144.744 Y74.881 E16.35455
G1 X145.59 Y75.244 E16.39742
G1 X146.401 Y75.68 E16.4403
G1 X147.171 Y76.184 E16.48315
G1 X147.895 Y76.753 E16.52603
G1 X148.566 Y77.383 E16.56888
G1 X149.18 Y78.069 E16.61175
G1 X149.733 Y78.806 E16.65466
G1 X150.219 Y79.587 E16.69749
G1 X150.636 Y80.408 E16.74037
G1 X150.98 Y81.262 E16.78324
G1 X151.249 Y82.143 E16.82613
G1 X151.476 Y83.273 E16.8798
G1 X151.623 Y84.288 E16.92756
G1 X151.669 Y84.64 E16.94409
G1 X152.047 Y87.076 E17.05887
G1 X152.511 Y89.591 E17.17796
G1 X153.04 Y92.069 E17.29594
G1 X153.628 Y94.487 E17.41182
G1 X154.306 Y96.967 E17.53153
G1 X155.037 Y99.37 E17.64849
G1 X155.837 Y101.754 E17.76558
G1 X156.02 Y102.253 E17.79033
G1 X156.481 Y103.56 E17.85487
G1 X156.75 Y104.441 E17.89776
G1 X156.94 Y105.341 E17.94059
G1 X157.052 Y106.255 E17.98347
G1 X157.08 Y106.771 E18.00753
G1 X157.09 Y107.107 E18.02318
G1 X157.095 Y107.422 E18.03785
G1 X157.094 Y127.377 E18.96704
G1 X157.083 Y128.084 E18.99997
G1 X157.028 Y129.003 E19.04284
G1 X156.895 Y129.914 E19.08571
G1 X156.682 Y130.81 E19.12859
G1 X156.442 Y131.551 E19.16486
G1 X156.352 Y131.797 E19.17706
G1 X155.461 Y134.323 E19.30178
G1 X154.688 Y136.729 E19.41945
G1 X153.987 Y139.146 E19.53664
G1 X153.346 Y141.611 E19.65523
G1 X152.77 Y144.111 E19.7747
G1 X152.287 Y146.535 E19.88979
G1 X151.859 Y149.035 E20.00789
G1 X151.479 Y151.705 E20.13347
G1 X151.31 Y152.61 E20.17634
G1 X151.063 Y153.497 E20.21921
G1 X150.739 Y154.359 E20.26209
G1 X150.343 Y155.189 E20.30491
G1 X149.875 Y155.983 E20.34783
G1 X149.341 Y156.732 E20.39066
G1 X148.743 Y157.433 E20.43357
G1 X148.087 Y158.079 E20.47644
G1 X147.378 Y158.665 E20.51927
G1 X146.62 Y159.188 E20.56215
G1 X145.82 Y159.643 E20.60501
G1 X144.983 Y160.027 E20.64789
G1 X144.116 Y160.337 E20.69076
G1 X143.225 Y160.571 E20.73366
G1 X142.318 Y160.726 E20.7765
G1 X141.286 Y160.806 E20.8247
G1 X140.969 Y160.815 E20.83947
G1 X140.668 Y160.819 E20.85348
G1 X136.962 Y160.819 E21.02605
G1 X135.811 Y160.814 E21.07965
G1 X135.119 Y160.819 E21.11187
G1 X132.027 Y160.817 E21.25585
G1 X131.348 Y160.807 E21.28747
G1 X130.429 Y160.753 E21.33033
G1 X129.518 Y160.62 E21.3732
G1 X128.976 Y160.502 E21.39903
G1 X127.679 Y160.184 E21.46122
G1 X125.176 Y159.607 E21.58082
G1 X122.633 Y159.094 E21.70162
G1 X120.209 Y158.681 E21.81612
G1 X117.686 Y158.321 E21.93479
G1 X115.18 Y158.036 E22.05223
G1 X112.643 Y157.82 E22.17079
G1 X110.14 Y157.678 E22.28753
G1 X107.558 Y157.604 E22.40781
G1 X106.249 Y157.595 E22.46876
G1 X104.388 Y157.595 E22.55542
G1 X103.535 Y157.584 E22.59514
G1 X102.616 Y157.531 E22.638
G1 X101.705 Y157.398 E22.68087
G1 X100.809 Y157.187 E22.72374
G1 X99.934 Y156.899 E22.76663
G1 X99.088 Y156.536 E22.8095
G1 X98.277 Y156.101 E22.85235
G1 X97.506 Y155.597 E22.89524
G1 X96.691 Y154.949 E22.94372
G1 X95.73 Y154.105 E23.00328
G1 X93.684 Y152.358 E23.12856
G1 X91.749 Y150.796 E23.24435
G1 X89.736 Y149.265 E23.36211
G1 X87.665 Y147.779 E23.4808
G1 X85.603 Y146.386 E23.59668
G1 X83.386 Y144.978 E23.71897
G1 X82.625 Y144.509 E23.76059
G1 X81.863 Y143.992 E23.80347
G1 X81.149 Y143.411 E23.84633
G1 X80.488 Y142.77 E23.88921
G1 X79.885 Y142.074 E23.93209
G1 X79.345 Y141.328 E23.97497
G1 X78.872 Y140.539 E24.01781
G1 X78.469 Y139.711 E24.06069
G1 X78.139 Y138.851 E24.10358
G1 X77.885 Y137.966 E24.14645
G1 X77.709 Y137.063 E24.18929
G1 X77.596 Y135.82 E24.24741
G1 X77.586 Y135.501 E24.26227
G1 X77.581 Y135.165 E24.27792
G1 X77.583 Y132.026 E24.42408
G1 X77.593 Y131.349 E24.45561
G1 X77.678 Y130.156 E24.5113
G1 X77.833 Y128.948 E24.56801
G1 X78.134 Y126.316 E24.69137
G1 X78.344 Y123.854 E24.80642
G1 X78.489 Y121.314 E24.92489
G1 X78.562 Y118.766 E25.04358
G1 X78.564 Y116.255 E25.16051
G1 X78.493 Y113.711 E25.27901
G1 X78.351 Y111.19 E25.39659
G1 X78.141 Y108.702 E25.51285
G1 X77.85 Y106.132 E25.63328
G1 X77.685 Y104.904 E25.69098
G1 X77.596 Y103.819 E25.74167
G1 X77.586 Y103.494 E25.75681
G1 X77.581 Y103.164 E25.77218
G1 X77.583 Y100.011 E25.919
G1 X77.593 Y99.352 E25.94969
G1 X77.647 Y98.433 E25.99255
G1 X77.781 Y97.522 E26.03543
G1 X77.993 Y96.626 E26.0783
G1 X78.282 Y95.752 E26.12117
G1 X78.645 Y94.906 E26.16403
G1 X79.081 Y94.095 E26.20691
G1 X79.586 Y93.325 E26.24979
G1 X80.155 Y92.602 E26.29263
G1 X80.785 Y91.93 E26.33552
G1 X81.471 Y91.316 E26.37839
G0 F6000 X81.858 Y91.518
G1 F1200 X82.59 Y90.989 E26.42044
G1 X83.366 Y90.527 E26.46249
G1 X84.18 Y90.135 E26.50456
G1 X85.045 Y89.811 E26.54758
G1 X85.454 Y89.679 E26.56759
G1 X87.568 Y89.029 E26.67057
G1 X89.95 Y88.224 E26.78765
G1 X92.34 Y87.338 E26.90634
G1 X94.693 Y86.39 E27.02446
G1 X97.028 Y85.371 E27.14309
G1 X99.342 Y84.285 E27.26212
G1 X100.37 Y83.785 E27.31535
G1 X100.471 Y83.737 E27.32056
G1 X102.738 Y82.598 E27.43869
G1 X104.978 Y81.393 E27.55713
G1 X107.172 Y80.13 E27.67501
G1 X107.405 Y79.988 E27.68772
G1 X108.637 Y79.255 E27.75447
G1 X109.302 Y78.892 E27.78975
G1 X110.127 Y78.524 E27.83181
G1 X110.981 Y78.231 E27.87385
G1 X111.858 Y78.014 E27.91592
G1 X112.751 Y77.876 E27.958
G1 X113.562 Y77.819 E27.99585
G1 X114.358 Y77.795 E28.03293
G1 X116.898 Y77.685 E28.15132
G1 X119.443 Y77.503 E28.27013
G1 X121.962 Y77.249 E28.38802
G1 X124.518 Y76.92 E28.50802
G1 X126.995 Y76.529 E28.62478
G1 X129.501 Y76.061 E28.74349
G1 X131.954 Y75.53 E28.86036
G1 X134.518 Y74.898 E28.98332
G1 X134.915 Y74.809 E29.00227
G1 X135.806 Y74.662 E29.04432
G1 X136.726 Y74.594 E29.08727
G1 X137.042 Y74.585 E29.10199
G1 X137.335 Y74.581 E29.11564
G1 X140.47 Y74.583 E29.26162
G1 X141.138 Y74.593 E29.29272
G1 X142.039 Y74.647 E29.33475
G1 X142.932 Y74.78 E29.3768
G1 X143.81 Y74.991 E29.41884
G1 X144.666 Y75.279 E29.4609
G1 X145.493 Y75.642 E29.50295
G1 X146.285 Y76.077 E29.54503
G1 X147.035 Y76.58 E29.58708
G1 X147.738 Y77.147 E29.62913
G1 X148.387 Y77.775 E29.67118
G1 X148.979 Y78.457 E29.71324
G1 X149.508 Y79.189 E29.75529
G1 X149.97 Y79.965 E29.79734
G1 X150.362 Y80.778 E29.83937
G1 X150.68 Y81.623 E29.88141
G1 X150.923 Y82.493 E29.92347
G1 X151.08 Y83.33 E29.96313
G1 X151.227 Y84.345 E30.01088
G1 X151.271 Y84.68 E30.02662
G1 X151.658 Y87.172 E30.14404
G1 X152.114 Y89.649 E30.26132
G1 X152.645 Y92.134 E30.37965
G1 X153.25 Y94.623 E30.49892
G1 X153.912 Y97.042 E30.6157
G1 X154.662 Y99.508 E30.73572
G1 X155.462 Y101.894 E30.8529
G1 X155.643 Y102.386 E30.87731
G1 X156.104 Y103.693 E30.94185
G1 X156.367 Y104.557 E30.9839
G1 X156.552 Y105.441 E31.02595
G1 X156.68 Y106.783 E31.08873
G1 X156.69 Y107.119 E31.10438
G1 X156.695 Y107.422 E31.11849
G1 X156.694 Y127.371 E32.0474
G1 X156.683 Y128.078 E32.08032
G1 X156.629 Y128.979 E32.12235
G1 X156.495 Y129.872 E32.1644
G1 X156.283 Y130.75 E32.20646
G1 X156.067 Y131.414 E32.23897
G1 X155.939 Y131.765 E32.25637
G1 X155.075 Y134.215 E32.37734
G1 X154.309 Y136.6 E32.49398
G1 X153.604 Y139.03 E32.6118
G1 X152.953 Y141.535 E32.73232
G1 X152.383 Y144.009 E32.85053
G1 X151.894 Y146.461 E32.96696
G1 X151.462 Y148.988 E33.08633
G1 X151.083 Y151.648 E33.21144
G1 X150.916 Y152.536 E33.25352
G1 X150.672 Y153.405 E33.29555
G1 X150.351 Y154.25 E33.33764
G1 X149.957 Y155.062 E33.37966
G1 X149.493 Y155.837 E33.42172
G1 X148.962 Y156.567 E33.46376
G1 X148.368 Y157.248 E33.50584
G1 X147.716 Y157.873 E33.54789
G1 X147.012 Y158.439 E33.58995
G1 X146.261 Y158.94 E33.63199
G1 X145.468 Y159.372 E33.67404
G1 X144.64 Y159.733 E33.7161
G1 X143.783 Y160.019 E33.75817
G1 X142.905 Y160.228 E33.80019
G1 X142.011 Y160.358 E33.84226
G1 X141.274 Y160.406 E33.87665
G1 X140.957 Y160.415 E33.89142
G1 X140.668 Y160.419 E33.90488
G1 X136.964 Y160.419 E34.07735
G1 X135.81 Y160.414 E34.13108
G1 X135.12 Y160.419 E34.16322
G1 X132.033 Y160.417 E34.30696
G1 X131.354 Y160.407 E34.33858
G1 X130.452 Y160.354 E34.38065
G1 X129.559 Y160.221 E34.42269
G1 X129.071 Y160.114 E34.44596
G1 X127.784 Y159.798 E34.50766
G1 X125.239 Y159.212 E34.62927
G1 X122.713 Y158.702 E34.74927
G1 X120.26 Y158.284 E34.86513
G1 X117.716 Y157.922 E34.98479
G1 X115.223 Y157.638 E35.10162
G1 X112.699 Y157.423 E35.21958
G1 X110.139 Y157.278 E35.33897
G1 X107.573 Y157.204 E35.4585
G1 X106.252 Y157.195 E35.52002
G1 X104.388 Y157.195 E35.60681
G1 X103.541 Y157.184 E35.64626
G1 X102.639 Y157.131 E35.68833
G1 X101.746 Y156.999 E35.73036
G1 X100.868 Y156.788 E35.77241
G1 X100.012 Y156.5 E35.81446
G1 X99.184 Y156.138 E35.85654
G1 X98.392 Y155.704 E35.8986
G1 X97.642 Y155.201 E35.94065
G1 X96.955 Y154.649 E35.98168
G1 X95.928 Y153.747 E36.04533
G1 X93.971 Y152.076 E36.16516
G1 X91.997 Y150.483 E36.28327
G1 X89.966 Y148.937 E36.40212
